X: 59
T: Deus in nomine tuo
N: Derived from Mar2022-Deus_in_nomine_tuo.krn
C: Johannes Martini
%%abc-version 2.0
%%abcx-abcm2ps-target-version 5.9.1 (29 Sep 2008)
%%abc-creator hum2abc beta
%%abcx-conversion-date 2019/02/17 07:19:42
%%abc-edited-by Jesse Rodin
%%abc-edited-by Chris Gage 03-13-2014
%%abcx-initial-encoding-date 2014/10/06/
%%humdrum-veritas 3107410305
%%humdrum-veritas-data 2764698541
%%linebreak <none>
%%barnumbers 0
L: 1/4
M: 4/2
Q: 1/2=120
V: 1 clef=treble
V: 2 clef=treble-8
V: 3 clef=treble-8
K: F
[V:1] A4A4 | 
[V:2] e4e4 | 
[V:3] A4c4 | 
[V:1] A2A2A2A2 | 
[V:2] e2e2e2e2 | 
[V:3] c2c2c2c2 | 
[V:1] A4G4 | 
[V:2] e4d4 | 
[V:3] c4B4 | 
[V:1] A2B4AG | 
[V:2] e2f4ed | 
[V:3] c2d4cB | 
[V:1] F2G4F2- | 
[V:2] c2d4c2- | 
[V:3] A2B4A2 | 
[V:1] F2E2F4 ||  
[V:2] c2=B2c4 ||  
[V:3] G4F4 ||  
[V:1] A4A4 | 
[V:2] z8 | 
[V:3] A4c4 | 
[V:1] A2A2A4 | 
[V:2] z8 | 
[V:3] c2c2c4 | 
[V:1] A4A2A2 | 
[V:2] z8 | 
[V:3] c4c2c2 | 
[V:1] G2F2G4 | 
[V:2] z8 | 
[V:3] B2A2B4 | 
[V:1] A4z4 | 
[V:2] z8 | 
[V:3] A4z4 | 
[V:1] A2A4A2 | 
[V:2] z8 | 
[V:3] c2c4c2 | 
[V:1] A2A2A4 | 
[V:2] z8 | 
[V:3] c2c2c4 | 
[V:1] G4A4 | 
[V:2] z8 | 
[V:3] B4c4 | 
[V:1] B2A2G2A2- | 
[V:2] z8 | 
[V:3] d2c2B2c2- | 
[V:1] A2F4E2 | 
[V:2] z8 | 
[V:3] c2A2G4 | 
[V:1] F8 ||  
[V:2] z8 ||  
[V:3] F8 ||  
[V:1] A2A2A4 | 
[V:2] e2e2e4 | 
[V:3] c2c2c4 | 
[V:1] A4A2A2 | 
[V:2] e4e2e2 | 
[V:3] c4c2c2 | 
[V:1] A4A2A2 | 
[V:2] e4e2e2 | 
[V:3] c4c2c2 | 
[V:1] A2A2A4 | 
[V:2] e2e2e4 | 
[V:3] c2c2c4 | 
[V:1] A2A4A2 | 
[V:2] e2e4e2 | 
[V:3] c2c4c2 | 
[V:1] G4z2A2- | 
[V:2] d4z2e2- | 
[V:3] B4z2c2- | 
[V:1] A2A2A4 | 
[V:2] e2e2e4 | 
[V:3] c2c2c4 | 
[V:1] A2A2A4 | 
[V:2] e2e2e4 | 
[V:3] c2c2c4 | 
[V:1] A4A2G2 | 
[V:2] e4e2d2 | 
[V:3] c4c2B2 | 
[V:1] A2B4A2- | 
[V:2] e2f4e2- | 
[V:3] c2d4c2 | 
[V:1] A2G2A4 | 
[V:2] e2d2e4 | 
[V:3] B4A4 | 
[V:1] z4A4 | 
[V:2] z4e4 | 
[V:3] z4c4 | 
[V:1] A4A2A2 | 
[V:2] e4e2e2 | 
[V:3] c4c2c2 | 
[V:1] A2A2A4 | 
[V:2] e2e2e4 | 
[V:3] c2c2c4 | 
[V:1] G4A4 | 
[V:2] d4e4 | 
[V:3] B4A4 | 
[V:1] G4A2B2- | 
[V:2] d4e2f2- | 
[V:3] B4c2d2- | 
[V:1] B2AGF2G2- | 
[V:2] f2edc2d2- | 
[V:3] d2cBA2G2- | 
[V:1] G2F4E2 | 
[V:2] d2c4=B2 | 
[V:3] G2A2G4 | 
[V:1] F8 ||  
[V:2] c8 ||  
[V:3] F8 ||  
[V:1] A4A4 | 
[V:2] z8 | 
[V:3] A4c4 | 
[V:1] A2A2A4 | 
[V:2] z8 | 
[V:3] c2c2c4 | 
[V:1] A4A2B2- | 
[V:2] z8 | 
[V:3] c4c2d2- | 
[V:1] B2A4G2 | 
[V:2] z8 | 
[V:3] d2c2B4 | 
[V:1] A4z4 | 
[V:2] z8 | 
[V:3] A4z4 | 
[V:1] A4A2A2 | 
[V:2] z8 | 
[V:3] c4c2c2 | 
[V:1] A4A4 | 
[V:2] z8 | 
[V:3] c4c4 | 
[V:1] A2A2A4 | 
[V:2] z8 | 
[V:3] c2c2c4 | 
[V:1] G4A2B2 | 
[V:2] z8 | 
[V:3] B4c2d2 | 
[V:1] A2G4F2- | 
[V:2] z8 | 
[V:3] c2B4A2 | 
[V:1] F2E2F4 ||  
[V:2] z8 ||  
[V:3] G4F4 ||  
[V:1] A4G4 | 
[V:2] e4d4 | 
[V:3] c4B4 | 
[V:1] A4A2A2 | 
[V:2] e4e2e2 | 
[V:3] c4c2c2 | 
[V:1] A4A2A2 | 
[V:2] e4e2e2 | 
[V:3] c4c2c2 | 
[V:1] G2A2B4 | 
[V:2] d2e2f4 | 
[V:3] B2c2d4 | 
[V:1] A4z4 | 
[V:2] e4z4 | 
[V:3] A4z4 | 
[V:1] A4A4 | 
[V:2] e4e4 | 
[V:3] c4c4 | 
[V:1] A4A2A2 | 
[V:2] e4e2e2 | 
[V:3] c4c2c2 | 
[V:1] A2A2A4 | 
[V:2] e2e2e4 | 
[V:3] c2c2c4 | 
[V:1] G4A2B2- | 
[V:2] d4e2f2- | 
[V:3] B4c2d2- | 
[V:1] B2AGF2G2- | 
[V:2] f2edc2d2- | 
[V:3] d2cBA2B2- | 
[V:1] G2F4E2 | 
[V:2] d2c4=B2 | 
[V:3] B2A2G4 | 
[V:1] F8 ||  
[V:2] c8 ||  
[V:3] F8 ||  
[V:1] A2A2A2A2 | 
[V:2] z8 | 
[V:3] c2c2c2c2 | 
[V:1] A4A4 | 
[V:2] z8 | 
[V:3] c4c4 | 
[V:1] G2A2B4 | 
[V:2] z8 | 
[V:3] B2c2d4 | 
[V:1] A2A4G2 | 
[V:2] z8 | 
[V:3] c2A2B4 | 
[V:1] A4z4 | 
[V:2] z8 | 
[V:3] A4z4 | 
[V:1] A4A2A2 | 
[V:2] z8 | 
[V:3] c4c2c2 | 
[V:1] A4A4 | 
[V:2] z8 | 
[V:3] c4c4 | 
[V:1] A2A2A2A2 | 
[V:2] z8 | 
[V:3] c2c2c2c2 | 
[V:1] A4A2A2 | 
[V:2] z8 | 
[V:3] A4c2c2 | 
[V:1] A4G4 | 
[V:2] z8 | 
[V:3] c4B4 | 
[V:1] A4B2A2 | 
[V:2] z8 | 
[V:3] c4d2c2 | 
[V:1] G2A4F2- | 
[V:2] z8 | 
[V:3] B2c4A2 | 
[V:1] F2E2F4 ||  
[V:2] z8 ||  
[V:3] G4F4 ||  
[V:1] A2A2A4 | 
[V:2] e2e2e4 | 
[V:3] c2c2c4 | 
[V:1] A2A2A4 | 
[V:2] e2e2e4 | 
[V:3] c2c2c4 | 
[V:1] A4A2A2 | 
[V:2] e4e2e2 | 
[V:3] c4c2c2 | 
[V:1] A2A2A4 | 
[V:2] e2e2e4 | 
[V:3] c2c2c4 | 
[V:1] G4A2B2- | 
[V:2] d4e2f2- | 
[V:3] B4c2d2- | 
[V:1] B2A4G2 | 
[V:2] f2e4d2 | 
[V:3] d2c2B4 | 
[V:1] A4z4 | 
[V:2] e4z4 | 
[V:3] A4z4 | 
[V:1] A4A4 | 
[V:2] e4e4 | 
[V:3] c4c4 | 
[V:1] A4A2A2 | 
[V:2] e4e2e2 | 
[V:3] c4c2c2 | 
[V:1] A2A2A4 | 
[V:2] e2e2e4 | 
[V:3] c2c2c4 | 
[V:1] A4A2A2 | 
[V:2] e4e2e2 | 
[V:3] c4c2c2 | 
[V:1] A4G4 | 
[V:2] e4d4 | 
[V:3] c4B4 | 
[V:1] A4B2A2 | 
[V:2] e4f2e2 | 
[V:3] c4d2c2 | 
[V:1] G2A4G2- | 
[V:2] d2e4d2- | 
[V:3] B2c4B2 | 
[V:1] G2^F2G4 |]  
[V:2] d2c2d4 |]  
[V:3] A4G4 |]  



